X:1
T:Red Haired Boy
L:1/8
M:4/4
I:linebreak $
K:D
V:1 treble
V:1
 "A"E2 A2 ABcd | efec "D"d2 cd | "A"e2 A2 ABcA | "G"B2 G2 G4 |$ 
"A"E2 A2 ABcd | efec "D"d2 cd | "A"e2 a2 afed |["1." %7
 "E7"c2 A2 "A"A4 :|["2." "E7"c2 A2 "A"A2 ef ||$ 
"G"gfga gfef | "D"gf e2 d2 cd | "A"e2 A2 ABcA | "G"B2 G2 G4 |$ 
"A"E2 A2 ABcd |efec "D"d2 cd | "A"e2 a2 afed |["1." "E7"c2 A2 "A"A2 ef :|["2." "E7"c2 A2 "A"A4 |] %18
